assets/svg/setting.svg

<?xml version="1.0" encoding="UTF-8"?>
<svg width="1000px" height="1000px" viewBox="0 0 1000 1000" version="1.1" xmlns="http://www.w3.org/2000/svg" xmlns:xlink="http://www.w3.org/1999/xlink">
    <!-- Generator: sketchtool 52.4 (67378) - http://www.bohemiancoding.com/sketch -->
    <title>setting</title>
    <desc>Created with sketchtool.</desc>
    <g id="新版图标" stroke="none" stroke-width="1" fill="none" fill-rule="evenodd">
        <g id="setting" fill="#323233">
            <g id="圆角-设置-面">
                <path d="M161.296149,191.208938 C224.07805,122.384576 307.555226,72.7649478 401.885235,52.1924949 C420.572832,87.2495048 457.499828,111.111111 500,111.111111 C542.500172,111.111111 579.427168,87.2495048 598.11478,52.1924987 C692.444774,72.7649478 775.92195,122.384576 838.703851,191.208938 C817.735252,224.910499 815.554919,268.779375 836.787657,305.555556 C858.042627,342.370244 897.183985,362.419912 936.897438,361.065211 C950.820815,404.887697 958.333333,451.566527 958.333333,500 C958.333333,548.433473 950.820815,595.112303 936.897477,638.93479 C897.184011,637.580074 858.042634,657.629744 836.787657,694.444444 C815.55492,731.220623 817.735252,775.089497 838.703844,808.79105 C775.92195,877.615424 692.444776,927.235051 598.114767,947.807505 C579.427168,912.750495 542.500172,888.888889 500,888.888889 C457.499828,888.888889 420.572832,912.750495 401.88522,947.807501 C307.555226,927.235052 224.07805,877.615424 161.296149,808.791062 C182.264748,775.089501 184.445081,731.220625 163.212343,694.444444 C141.957373,657.629756 102.816015,637.580088 63.1025617,638.934789 C49.1791853,595.112303 41.6666667,548.433473 41.6666667,500 C41.6666667,451.566527 49.1791853,404.887697 63.1025225,361.06521 C102.816015,362.419912 141.957373,342.370244 163.212343,305.555556 C184.445081,268.779375 182.264748,224.910499 161.296154,191.208946 Z M500,611.111111 C561.364972,611.111111 611.111111,561.364972 611.111111,500 C611.111111,438.635028 561.364972,388.888889 500,388.888889 C438.635028,388.888889 388.888889,438.635028 388.888889,500 C388.888889,561.364972 438.635028,611.111111 500,611.111111 Z" id="Combined-Shape"></path>
            </g>
        </g>
    </g>
</svg>

<svg width="1000" height="1000" xmlns="http://www.w3.org/2000/svg"><path d="M161.296 191.209c62.782-68.824 146.26-118.444 240.59-139.017 18.687 35.058 55.614 58.92 98.114 58.92 42.5 0 79.427-23.862 98.115-58.92 94.33 20.573 177.807 70.193 240.589 139.017-20.969 33.701-23.15 77.57-1.916 114.347 21.255 36.814 60.396 56.864 100.11 55.51 13.923 43.822 21.435 90.5 21.435 138.934 0 48.433-7.512 95.112-21.436 138.935-39.713-1.355-78.854 18.695-100.11 55.51-21.232 36.776-19.052 80.644 1.917 114.346-62.782 68.824-146.26 118.444-240.59 139.017-18.687-35.058-55.614-58.92-98.114-58.92-42.5 0-79.427 23.862-98.115 58.92-94.33-20.573-177.807-70.193-240.589-139.017 20.969-33.701 23.15-77.57 1.916-114.347-21.255-36.814-60.396-56.864-100.11-55.51C49.18 595.113 41.668 548.435 41.668 500c0-48.433 7.512-95.112 21.436-138.935 39.713 1.355 78.854-18.695 100.11-55.51 21.232-36.776 19.052-80.645-1.917-114.346zM500 611.11c61.365 0 111.111-49.746 111.111-111.111S561.365 388.889 500 388.889 388.889 438.635 388.889 500 438.635 611.111 500 611.111z" fill="#323233" fill-rule="evenodd"/></svg>
